X:131
T: Der Spielmannssohn
N: Q0062E
O: Mitteleuropa, Deutschland / Frankreich, Lothringen
N: Kleinere Melodievarianten aus anderer Quelle im gleichen System
N: abgedruckt
R: Ballade, Verfuehrung, Standesunterschied, Strafe, Gnade
M: 6/8
L: 1/16
K: F
C2 | F4F2G4c2 | A3GA2F4
F2 | G3AB2c3BA2 | F3GA2G4
G2 | c3dc2B2A2GG | F3CA2G4
F2 | G2A2c2c3BA2 | G6F4

